packages/assets/static/images/icons/tent.svg

<svg width="24" height="24" viewBox="0 0 24 24" xmlns="http://www.w3.org/2000/svg">
<g clip-path="url(#clip0_2087_4476)">
<path d="M23.9061 18.2939L17.9061 4.79393C17.8176 4.59451 17.673 4.42514 17.4898 4.30646C17.3067 4.18777 17.0931 4.1249 16.8749 4.12549H7.12489C6.91144 4.12571 6.70245 4.18665 6.52234 4.30119C6.34223 4.41573 6.19842 4.57915 6.1077 4.77237C6.10357 4.77935 6.09981 4.78655 6.09645 4.79393L6.09364 4.80987L0.0936378 18.2939C0.0174764 18.4654 -0.0145686 18.6533 0.000420803 18.8404C0.0154102 19.0274 0.0769579 19.2078 0.179459 19.365C0.28196 19.5222 0.422158 19.6512 0.587285 19.7404C0.752413 19.8296 0.937224 19.876 1.12489 19.8755H22.8749C23.0626 19.876 23.2474 19.8296 23.4125 19.7404C23.5776 19.6512 23.7178 19.5222 23.8203 19.365C23.9228 19.2078 23.9844 19.0274 23.9994 18.8404C24.0143 18.6533 23.9823 18.4654 23.9061 18.2939ZM5.99989 10.5521V17.6255H2.85551L5.99989 10.5521ZM8.24989 17.6255V10.5521L11.3943 17.6255H8.24989ZM13.8561 17.6255L8.85645 6.37549H16.1436L21.1443 17.6255H13.8561Z"/>
</g>
<defs>
<clipPath id="clip0_2087_4476">
<rect width="24" height="24"/>
</clipPath>
</defs>
</svg>

<svg viewBox="0 0 24 24" xmlns="http://www.w3.org/2000/svg" aria-hidden="true" fill="currentColor" height="24px" width="24px"><g clip-path="url(#a)"><path d="m23.906 18.294-6-13.5a1.12 1.12 0 0 0-1.031-.669h-9.75a1.13 1.13 0 0 0-1.029.669l-.002.016-6 13.484a1.125 1.125 0 0 0 1.03 1.581h21.75a1.125 1.125 0 0 0 1.032-1.581M6 10.552v7.073H2.856zm2.25 7.073v-7.073l3.144 7.073zm5.606 0-5-11.25h7.288l5 11.25z"/></g><defs><clipPath id="a"><path d="M0 0h24v24H0z"/></clipPath></defs></svg>
